X:1
T:Title
%%score 1 ( 2 3 )
L:1/8
M:4/4
K:F
V:1 treble nm="Choir Aahs, Staff"
V:2 bass nm="Choir Aahs, Staff-1"
V:3 bass 
V:1
 [Fc]3 [CF] [CF]2 [CE]2 | [EA]3 [EG] [EG]2 F2 | [Gc]3 [GB] [FA]2 F2 | [FG]2 [EA]2 [CF]4 | %4
w: By~Gerard~Francis~Cobb~(1838\-1904) * * *||||
 C3 [CF] [CF]2 [CE]2 | [EA]3 [EG] [DG]2 [DF]2 | [Cc]3 [CB] [CA]2 F2 | [FG]2 [EA]2 [CF]4 | %8
w: ||||
 [Fc]3 [Gc] [^Fd]2 [DA]2 | [DB]3 [Dd] [Gc]2 [FA]2 | [FA]3 [GA] [FA]2 [A=B]2 | %11
w: |||
 [Ac]2 [_A=B]2 [E=A]4 | [_EA]3 [EA] [DA]2 [DG]2 | [^CG]3 [CG] [=CG]2 [CF]2 | [Fc]3 [FB] [EA]2 F2 | %15
w: ||||
 [FG]2 [EA]2 [CF]4 |] %16
w: |
V:2
 [F,A,]3 [F,A,] [C,A,]2 [C,G,]2 | [C,C]3 [C,B,] [D,B,]2 [D,A,]2 | [E,C]3 [E,C] [F,C]2 [D,D]2 | %3
 [B,,D]2 [C,C]2 [F,A,]4 | [E,B,]3 [F,A,] [C,G,]2 [C,G,]2 | [^C,A,]3 [C,A,] [D,A,]2 [D,A,]2 | %6
 [E,G,]3 [E,G,] F,2 [D,A,]2 | [^C,B,]2 [=C,C]2 [F,A,]4 | [F,A,]3 [_E,A,] [D,A,]2 [^F,D]2 | %9
 [G,B,]3 [F,A,] [E,G,]2 [F,C]2 | [F,C]3 [E,^C] [D,D]2 [D,F]2 | z4 C4 | %12
 [^F,C]3 [F,C] [G,C]2 [G,B,]2 | [E,B,]3 [E,B,] [F,B,]2 [F,A,]2 | [A,,C]3 [B,,D] [C,C]2 [D,A,]2 | %15
 [B,,D]2 [C,C]2 [F,A,]4 |] %16
V:3
 x8 | x8 | x8 | x8 | x8 | x8 | x8 | x8 | x8 | x8 | x8 | [E,E]2 [E,D]2 A,2 G,2 | x8 | x8 | x8 | %15
 x8 |] %16

